; generated by PrusaSlicer 2.7.0+win64 on 2024-01-09 at 10:14:03 UTC


;
;

;
;
; 

; external perimeters extrusion width = 0.45mm
; perimeters extrusion width = 0.45mm
; infill extrusion width = 0.45mm
; solid infill extrusion width = 0.45mm
; top infill extrusion width = 0.40mm
; first layer extrusion width = 0.42mm

M73 P0 R136
M201 X2500 Y2500 Z400 E5000 ; sets maximum accelerations, mm/sec^2
M203 X180 Y180 Z12 E80 ; sets maximum feedrates, mm / sec
M204 P1250 R1250 T2500 ; sets acceleration (P, T) and retract acceleration (R), mm/sec^2
M205 X8.00 Y8.00 Z2.00 E10.00 ; sets the jerk limits, mm/sec
M205 S0 T0 ; sets the minimum extruding and travel feed rate, mm/sec

; printing object Boitier v1.stl id:0 copy 0
; stop printing object Boitier v1.stl id:0 copy 0

;TYPE:Custom
M862.3 P "MINI" ; printer model check
G90 ; use absolute coordinates
M83 ; extruder relative mode
M104 S170 ; set extruder temp for bed leveling
M140 S60 ; set bed temp
M109 R170 ; wait for bed leveling temp
M190 S60 ; wait for bed temp
M204 T1250 ; set travel acceleration
G28 ; home all without mesh bed level
G29 ; mesh bed leveling 
M204 T2500 ; restore travel acceleration
M104 S215 ; set extruder temp
G92 E0
G1 Y-2 X179 F2400
G1 Z3 F720
M109 S215 ; wait for extruder temp

; intro line
G1 X170 F1000
G1 Z0.2 F720
G1 X110 E8 F900
G1 X40 E10 F700
G92 E0

M221 S95 ; set flow
G21 ; set units to millimeters
G90 ; use absolute coordinates
M83 ; use relative distances for extrusion
M900 K0.2 ; Filament gcode LA 1.5
; ; Filament gcode LA 1.0
M107
;LAYER_CHANGE
;Z:0.2
;HEIGHT:0.2
;BEFORE_LAYER_CHANGE
G92 E0.0
;0.2


G1 E-3.2 F4200
G1 Z.2 F720
;AFTER_LAYER_CHANGE
;0.2
G1 X43.06 Y52.817 F9000
G1 Z.2 F720
G1 E3.2 F2400
M204 P800
;TYPE:Skirt/Brim
;WIDTH:0.42
G1 F1200
G1 X44 Y52.623 E.03009
G1 X136 Y52.623 E2.8846
G1 X137.307 Y53.015 E.04278
G1 X138.183 Y54.06 E.04275
G1 X138.377 Y55 E.03009
G1 X138.377 Y125 E2.1948
G1 X137.985 Y126.307 E.04278
G1 X136.94 Y127.183 E.04275
G1 X136 Y127.377 E.03009
G1 X44 Y127.377 E2.8846
G1 X42.693 Y126.985 E.04278
G1 X41.817 Y125.94 E.04275
G1 X41.623 Y125 E.03009
G1 X41.623 Y55 E2.1948
G1 X42.015 Y53.693 E.04278
G1 X43.014 Y52.855 E.04088
M204 P1000
; printing object Boitier v1.stl id:0 copy 0
G1 E-2.24 F4200
;WIPE_START
G1 F7200
G1 X43.06 Y52.817 E-.03306
G1 X44 Y52.623 E-.53189
G1 X44.713 Y52.623 E-.39505
;WIPE_END
G1 Z.4 F720
G1 X135.213 Y55.787 F9000
G1 Z.2 F720
G1 E3.2 F2400
M204 P800
;TYPE:Perimeter
;WIDTH:0.419999
G1 F1200
G1 X135.213 Y90 E1.07272
G1 X135.213 Y124.213 E1.07272
G1 X44.787 Y124.213 E2.83524
G1 X44.787 Y55.787 E2.14545
G1 X135.153 Y55.787 E2.83336
M204 P1000
G1 X135.59 Y55.41 F9000
M204 P800
;TYPE:External perimeter
G1 F1200
G1 X135.59 Y90 E1.08454
G1 X135.59 Y124.59 E1.08454
G1 X44.41 Y124.59 E2.85888
G1 X44.41 Y55.41 E2.16909
M73 P0 R135
G1 X135.53 Y55.41 E2.857
M204 P1000
G1 X134.337 Y55.9 F9000
M204 P800
;TYPE:Solid infill
;WIDTH:0.420221
G1 F1200
G1 X134.93 Y56.493 E.02631
G1 X134.93 Y57.027 E.01675
G1 X133.973 Y56.07 E.04246
G1 X133.44 Y56.07 E.01672
G1 X134.93 Y57.56 E.06611
G1 X134.93 Y58.094 E.01675
G1 X132.906 Y56.07 E.0898
G1 X132.372 Y56.07 E.01675
G1 X134.93 Y58.628 E.11349
G1 X134.93 Y59.161 E.01672
G1 X131.839 Y56.07 E.13714
G1 X131.305 Y56.07 E.01675
G1 X134.93 Y59.695 E.16083
G1 X134.93 Y60.228 E.01672
G1 X130.772 Y56.07 E.18448
G1 X130.238 Y56.07 E.01675
G1 X134.93 Y60.762 E.20817
G1 X134.93 Y61.296 E.01675
G1 X129.704 Y56.07 E.23187
G1 X129.171 Y56.07 E.01672
G1 X134.93 Y61.829 E.25551
G1 X134.93 Y62.363 E.01675
G1 X128.637 Y56.07 E.27921
G1 X128.104 Y56.07 E.01672
G1 X134.93 Y62.896 E.30285
G1 X134.93 Y63.43 E.01675
G1 X127.57 Y56.07 E.32655
G1 X127.037 Y56.07 E.01672
G1 X134.93 Y63.963 E.35019
G1 X134.93 Y64.497 E.01675
G1 X126.503 Y56.07 E.37389
G1 X125.969 Y56.07 E.01675
G1 X134.93 Y65.031 E.39758
G1 X134.93 Y65.564 E.01672
G1 X125.436 Y56.07 E.42123
G1 X124.902 Y56.07 E.01675
G1 X134.93 Y66.098 E.44492
G1 X134.93 Y66.631 E.01672
G1 X124.369 Y56.07 E.46857
G1 X123.835 Y56.07 E.01675
G1 X134.93 Y67.165 E.49226
G1 X134.93 Y67.699 E.01675
G1 X123.301 Y56.07 E.51595
G1 X122.768 Y56.07 E.01672
G1 X134.93 Y68.232 E.5396
G1 X134.93 Y68.766 E.01675
G1 X122.234 Y56.07 E.56329
G1 X121.701 Y56.07 E.01672
G1 X134.93 Y69.299 E.58694
G1 X134.93 Y69.833 E.01675
G1 X121.167 Y56.07 E.61063
G1 X120.634 Y56.07 E.01672
G1 X134.93 Y70.366 E.63428
G1 X134.93 Y70.9 E.01675
G1 X120.1 Y56.07 E.65797
G1 X119.566 Y56.07 E.01675
M73 P1 R135
G1 X134.93 Y71.434 E.68167
G1 X134.93 Y71.967 E.01672
G1 X119.033 Y56.07 E.70531
G1 X118.499 Y56.07 E.01675
G1 X134.93 Y72.501 E.72901
G1 X134.93 Y73.034 E.01672
G1 X117.966 Y56.07 E.75265
G1 X117.432 Y56.07 E.01675
G1 X134.93 Y73.568 E.77635
G1 X134.93 Y74.102 E.01675
G1 X116.898 Y56.07 E.80004
G1 X116.365 Y56.07 E.01672
G1 X134.93 Y74.635 E.82369
G1 X134.93 Y75.169 E.01675
G1 X115.831 Y56.07 E.84738
G1 X115.298 Y56.07 E.01672
G1 X134.93 Y75.702 E.87103
G1 X134.93 Y76.236 E.01675
G1 X114.764 Y56.07 E.89472
G1 X114.231 Y56.07 E.01672
G1 X134.93 Y76.769 E.91837
G1 X134.93 Y77.303 E.01675
G1 X113.697 Y56.07 E.94206
G1 X113.163 Y56.07 E.01675
G1 X134.93 Y77.837 E.96575
G1 X134.93 Y78.37 E.01672
G1 X112.63 Y56.07 E.9894
G1 X112.096 Y56.07 E.01675
G1 X134.93 Y78.904 E1.01309
G1 X134.93 Y79.437 E.01672
G1 X111.563 Y56.07 E1.03674
G1 X111.029 Y56.07 E.01675
G1 X134.93 Y79.971 E1.06043
G1 X134.93 Y80.505 E.01675
G1 X110.495 Y56.07 E1.08412
G1 X109.962 Y56.07 E.01672
G1 X134.93 Y81.038 E1.10777
G1 X134.93 Y81.572 E.01675
G1 X109.428 Y56.07 E1.13147
G1 X108.895 Y56.07 E.01672
G1 X134.93 Y82.105 E1.15511
G1 X134.93 Y82.639 E.01675
G1 X108.361 Y56.07 E1.17881
M73 P1 R134
G1 X107.828 Y56.07 E.01672
G1 X134.93 Y83.172 E1.20245
G1 X134.93 Y83.706 E.01675
G1 X107.294 Y56.07 E1.22615
G1 X106.76 Y56.07 E.01675
G1 X134.93 Y84.24 E1.24984
G1 X134.93 Y84.773 E.01672
G1 X106.227 Y56.07 E1.27349
G1 X105.693 Y56.07 E.01675
G1 X134.93 Y85.307 E1.29718
G1 X134.93 Y85.84 E.01672
G1 X105.16 Y56.07 E1.32083
G1 X104.626 Y56.07 E.01675
G1 X134.93 Y86.374 E1.34452
G1 X134.93 Y86.908 E.01675
G1 X104.092 Y56.07 E1.36821
G1 X103.559 Y56.07 E.01672
G1 X134.93 Y87.441 E1.39186
G1 X134.93 Y87.975 E.01675
G1 X103.025 Y56.07 E1.41555
G1 X102.492 Y56.07 E.01672
G1 X134.93 Y88.508 E1.4392
G1 X134.93 Y89.042 E.01675
G1 X101.958 Y56.07 E1.46289
G1 X101.425 Y56.07 E.01672
G1 X134.93 Y89.575 E1.48654
G1 X134.93 Y90.109 E.01675
G1 X100.891 Y56.07 E1.51023
G1 X100.357 Y56.07 E.01675
G1 X134.93 Y90.643 E1.53392
G1 X134.93 Y91.176 E.01672
G1 X99.824 Y56.07 E1.55757
G1 X99.29 Y56.07 E.01675
G1 X134.93 Y91.71 E1.58127
G1 X134.93 Y92.243 E.01672
G1 X98.757 Y56.07 E1.60491
G1 X98.223 Y56.07 E.01675
G1 X134.93 Y92.777 E1.62861
G1 X134.93 Y93.311 E.01675
G1 X97.689 Y56.07 E1.6523
G1 X97.156 Y56.07 E.01672
G1 X134.93 Y93.844 E1.67595
G1 X134.93 Y94.378 E.01675
M73 P2 R134
G1 X96.622 Y56.07 E1.69964
G1 X96.089 Y56.07 E.01672
G1 X134.93 Y94.911 E1.72329
G1 X134.93 Y95.445 E.01675
G1 X95.555 Y56.07 E1.74698
G1 X95.022 Y56.07 E.01672
G1 X134.93 Y95.978 E1.77063
G1 X134.93 Y96.512 E.01675
M73 P2 R133
G1 X94.488 Y56.07 E1.79432
G1 X93.954 Y56.07 E.01675
G1 X134.93 Y97.046 E1.81801
G1 X134.93 Y97.579 E.01672
G1 X93.421 Y56.07 E1.84166
G1 X92.887 Y56.07 E.01675
G1 X134.93 Y98.113 E1.86535
G1 X134.93 Y98.646 E.01672
G1 X92.354 Y56.07 E1.889
G1 X91.82 Y56.07 E.01675
G1 X134.93 Y99.18 E1.91269
G1 X134.93 Y99.714 E.01675
G1 X91.286 Y56.07 E1.93638
G1 X90.753 Y56.07 E.01672
G1 X134.93 Y100.247 E1.96003
G1 X134.93 Y100.781 E.01675
G1 X90.219 Y56.07 E1.98372
G1 X89.686 Y56.07 E.01672
G1 X134.93 Y101.314 E2.00737
G1 X134.93 Y101.848 E.01675
G1 X89.152 Y56.07 E2.03106
G1 X88.619 Y56.07 E.01672
G1 X134.93 Y102.381 E2.05471
G1 X134.93 Y102.915 E.01675
G1 X88.085 Y56.07 E2.07841
G1 X87.551 Y56.07 E.01675
G1 X134.93 Y103.449 E2.1021
G1 X134.93 Y103.982 E.01672
G1 X87.018 Y56.07 E2.12575
G1 X86.484 Y56.07 E.01675
G1 X134.93 Y104.516 E2.14944
G1 X134.93 Y105.049 E.01672
G1 X85.951 Y56.07 E2.17309
G1 X85.417 Y56.07 E.01675
G1 X134.93 Y105.583 E2.19678
G1 X134.93 Y106.117 E.01675
M73 P2 R132
G1 X84.883 Y56.07 E2.22047
G1 X84.35 Y56.07 E.01672
G1 X134.93 Y106.65 E2.24412
G1 X134.93 Y107.184 E.01675
G1 X83.816 Y56.07 E2.26781
G1 X83.283 Y56.07 E.01672
G1 X134.93 Y107.717 E2.29146
G1 X134.93 Y108.251 E.01675
M73 P3 R132
G1 X82.749 Y56.07 E2.31515
G1 X82.215 Y56.07 E.01675
G1 X134.93 Y108.785 E2.33884
G1 X134.93 Y109.318 E.01672
G1 X81.682 Y56.07 E2.36249
G1 X81.148 Y56.07 E.01675
G1 X134.93 Y109.852 E2.38618
G1 X134.93 Y110.385 E.01672
G1 X80.615 Y56.07 E2.40983
G1 X80.081 Y56.07 E.01675
G1 X134.93 Y110.919 E2.43352
G1 X134.93 Y111.452 E.01672
G1 X79.548 Y56.07 E2.45717
G1 X79.014 Y56.07 E.01675
G1 X134.93 Y111.986 E2.48086
G1 X134.93 Y112.52 E.01675
G1 X78.48 Y56.07 E2.50456
G1 X77.947 Y56.07 E.01672
G1 X134.93 Y113.053 E2.52821
G1 X134.93 Y113.587 E.01675
G1 X77.413 Y56.07 E2.5519
G1 X76.88 Y56.07 E.01672
G1 X134.93 Y114.12 E2.57555
G1 X134.93 Y114.654 E.01675
M73 P3 R131
G1 X76.346 Y56.07 E2.59924
G1 X75.812 Y56.07 E.01675
G1 X134.93 Y115.188 E2.62293
G1 X134.93 Y115.721 E.01672
G1 X75.279 Y56.07 E2.64658
G1 X74.745 Y56.07 E.01675
G1 X134.93 Y116.255 E2.67027
G1 X134.93 Y116.788 E.01672
G1 X74.212 Y56.07 E2.69392
G1 X73.678 Y56.07 E.01675
G1 X134.93 Y117.322 E2.71761
G1 X134.93 Y117.855 E.01672
G1 X73.145 Y56.07 E2.74126
G1 X72.611 Y56.07 E.01675
G1 X134.93 Y118.389 E2.76495
G1 X134.93 Y118.923 E.01675
M73 P4 R131
G1 X72.077 Y56.07 E2.78864
G1 X71.544 Y56.07 E.01672
G1 X134.93 Y119.456 E2.81229
G1 X134.93 Y119.99 E.01675
G1 X71.01 Y56.07 E2.83598
G1 X70.477 Y56.07 E.01672
G1 X134.93 Y120.523 E2.85963
G1 X134.93 Y121.057 E.01675
G1 X69.943 Y56.07 E2.88332
G1 X69.409 Y56.07 E.01675
G1 X134.93 Y121.591 E2.90702
G1 X134.93 Y122.124 E.01672
M73 P4 R130
G1 X68.876 Y56.07 E2.93066
G1 X68.342 Y56.07 E.01675
G1 X134.93 Y122.658 E2.95436
G1 X134.93 Y123.191 E.01672
G1 X67.809 Y56.07 E2.978
G1 X67.275 Y56.07 E.01675
G1 X134.93 Y123.725 E3.0017
G1 X134.93 Y123.93 E.00643
G1 X134.602 Y123.93 E.01029
G1 X66.742 Y56.07 E3.01079
G1 X66.208 Y56.07 E.01675
G1 X134.068 Y123.93 E3.01079
G1 X133.535 Y123.93 E.01672
G1 X65.674 Y56.07 E3.01081
G1 X65.141 Y56.07 E.01672
G1 X133.001 Y123.93 E3.01079
G1 X132.467 Y123.93 E.01675
G1 X64.607 Y56.07 E3.01079
G1 X64.074 Y56.07 E.01672
G1 X131.934 Y123.93 E3.01079
G1 X131.4 Y123.93 E.01675
G1 X63.54 Y56.07 E3.01079
G1 X63.006 Y56.07 E.01675
M73 P5 R130
G1 X130.867 Y123.93 E3.01081
G1 X130.333 Y123.93 E.01675
M73 P5 R129
G1 X62.473 Y56.07 E3.01079
G1 X61.939 Y56.07 E.01675
G1 X129.8 Y123.93 E3.01081
G1 X129.266 Y123.93 E.01675
G1 X61.406 Y56.07 E3.01079
G1 X60.872 Y56.07 E.01675
G1 X128.732 Y123.93 E3.01079
G1 X128.199 Y123.93 E.01672
G1 X60.339 Y56.07 E3.01079
G1 X59.805 Y56.07 E.01675
G1 X127.665 Y123.93 E3.01079
G1 X127.132 Y123.93 E.01672
G1 X59.271 Y56.07 E3.01081
G1 X58.738 Y56.07 E.01672
G1 X126.598 Y123.93 E3.01079
G1 X126.064 Y123.93 E.01675
G1 X58.204 Y56.07 E3.01079
G1 X57.671 Y56.07 E.01672
G1 X125.531 Y123.93 E3.01079
G1 X124.997 Y123.93 E.01675
G1 X57.137 Y56.07 E3.01079
G1 X56.603 Y56.07 E.01675
G1 X124.464 Y123.93 E3.01081
G1 X123.93 Y123.93 E.01675
G1 X56.07 Y56.07 E3.01079
G1 X55.536 Y56.07 E.01675
M73 P5 R128
G1 X123.397 Y123.93 E3.01081
G1 X122.863 Y123.93 E.01675
G1 X55.003 Y56.07 E3.01079
G1 X54.469 Y56.07 E.01675
G1 X122.329 Y123.93 E3.01079
G1 X121.796 Y123.93 E.01672
M73 P6 R128
G1 X53.936 Y56.07 E3.01079
G1 X53.402 Y56.07 E.01675
G1 X121.262 Y123.93 E3.01079
G1 X120.729 Y123.93 E.01672
G1 X52.868 Y56.07 E3.01081
G1 X52.335 Y56.07 E.01672
G1 X120.195 Y123.93 E3.01079
G1 X119.661 Y123.93 E.01675
G1 X51.801 Y56.07 E3.01079
G1 X51.268 Y56.07 E.01672
G1 X119.128 Y123.93 E3.01079
G1 X118.594 Y123.93 E.01675
G1 X50.734 Y56.07 E3.01079
G1 X50.2 Y56.07 E.01675
G1 X118.061 Y123.93 E3.01081
G1 X117.527 Y123.93 E.01675
G1 X49.667 Y56.07 E3.01079
G1 X49.133 Y56.07 E.01675
M73 P6 R127
G1 X116.994 Y123.93 E3.01081
G1 X116.46 Y123.93 E.01675
G1 X48.6 Y56.07 E3.01079
G1 X48.066 Y56.07 E.01675
G1 X115.926 Y123.93 E3.01079
G1 X115.393 Y123.93 E.01672
G1 X47.533 Y56.07 E3.01079
G1 X46.999 Y56.07 E.01675
G1 X114.859 Y123.93 E3.01079
G1 X114.326 Y123.93 E.01672
G1 X46.465 Y56.07 E3.01081
G1 X45.932 Y56.07 E.01672
G1 X113.792 Y123.93 E3.01079
G1 X113.258 Y123.93 E.01675
G1 X45.398 Y56.07 E3.01079
G1 X45.07 Y56.07 E.01029
M73 P7 R127
G1 X45.07 Y56.275 E.00643
G1 X112.725 Y123.93 E3.0017
G1 X112.191 Y123.93 E.01675
G1 X45.07 Y56.809 E2.978
G1 X45.07 Y57.342 E.01672
G1 X111.658 Y123.93 E2.95436
G1 X111.124 Y123.93 E.01675
G1 X45.07 Y57.876 E2.93066
G1 X45.07 Y58.41 E.01675
M73 P7 R126
G1 X110.59 Y123.93 E2.90697
G1 X110.057 Y123.93 E.01672
G1 X45.07 Y58.943 E2.88332
G1 X45.07 Y59.477 E.01675
G1 X109.523 Y123.93 E2.85963
G1 X108.99 Y123.93 E.01672
G1 X45.07 Y60.01 E2.83598
G1 X45.07 Y60.544 E.01675
G1 X108.456 Y123.93 E2.81229
G1 X107.923 Y123.93 E.01672
G1 X45.07 Y61.077 E2.78864
G1 X45.07 Y61.611 E.01675
G1 X107.389 Y123.93 E2.76495
G1 X106.855 Y123.93 E.01675
G1 X45.07 Y62.145 E2.74126
G1 X45.07 Y62.678 E.01672
G1 X106.322 Y123.93 E2.71761
G1 X105.788 Y123.93 E.01675
G1 X45.07 Y63.212 E2.69392
G1 X45.07 Y63.745 E.01672
G1 X105.255 Y123.93 E2.67027
G1 X104.721 Y123.93 E.01675
G1 X45.07 Y64.279 E2.64658
G1 X45.07 Y64.813 E.01675
G1 X104.187 Y123.93 E2.62289
G1 X103.654 Y123.93 E.01672
G1 X45.07 Y65.346 E2.59924
G1 X45.07 Y65.88 E.01675
M73 P7 R125
G1 X103.12 Y123.93 E2.57555
G1 X102.587 Y123.93 E.01672
M73 P8 R125
G1 X45.07 Y66.413 E2.5519
G1 X45.07 Y66.947 E.01675
G1 X102.053 Y123.93 E2.52821
G1 X101.52 Y123.93 E.01672
G1 X45.07 Y67.48 E2.50456
G1 X45.07 Y68.014 E.01675
G1 X100.986 Y123.93 E2.48086
G1 X100.452 Y123.93 E.01675
G1 X45.07 Y68.548 E2.45717
G1 X45.07 Y69.081 E.01672
G1 X99.919 Y123.93 E2.43352
G1 X99.385 Y123.93 E.01675
G1 X45.07 Y69.615 E2.40983
G1 X45.07 Y70.148 E.01672
G1 X98.852 Y123.93 E2.38618
G1 X98.318 Y123.93 E.01675
G1 X45.07 Y70.682 E2.36249
G1 X45.07 Y71.216 E.01675
G1 X97.784 Y123.93 E2.3388
G1 X97.251 Y123.93 E.01672
G1 X45.07 Y71.749 E2.31515
G1 X45.07 Y72.283 E.01675
G1 X96.717 Y123.93 E2.29146
G1 X96.184 Y123.93 E.01672
G1 X45.07 Y72.816 E2.26781
G1 X45.07 Y73.35 E.01675
G1 X95.65 Y123.93 E2.24412
G1 X95.117 Y123.93 E.01672
M73 P8 R124
G1 X45.07 Y73.883 E2.22047
G1 X45.07 Y74.417 E.01675
G1 X94.583 Y123.93 E2.19678
G1 X94.049 Y123.93 E.01675
G1 X45.07 Y74.951 E2.17309
G1 X45.07 Y75.484 E.01672
G1 X93.516 Y123.93 E2.14944
G1 X92.982 Y123.93 E.01675
G1 X45.07 Y76.018 E2.12575
G1 X45.07 Y76.551 E.01672
G1 X92.449 Y123.93 E2.1021
G1 X91.915 Y123.93 E.01675
G1 X45.07 Y77.085 E2.07841
G1 X45.07 Y77.619 E.01675
G1 X91.381 Y123.93 E2.05471
G1 X90.848 Y123.93 E.01672
M73 P9 R124
G1 X45.07 Y78.152 E2.03106
G1 X45.07 Y78.686 E.01675
G1 X90.314 Y123.93 E2.00737
G1 X89.781 Y123.93 E.01672
G1 X45.07 Y79.219 E1.98372
G1 X45.07 Y79.753 E.01675
G1 X89.247 Y123.93 E1.96003
G1 X88.714 Y123.93 E.01672
G1 X45.07 Y80.286 E1.93638
G1 X45.07 Y80.82 E.01675
G1 X88.18 Y123.93 E1.91269
G1 X87.646 Y123.93 E.01675
G1 X45.07 Y81.354 E1.889
G1 X45.07 Y81.887 E.01672
G1 X87.113 Y123.93 E1.86535
G1 X86.579 Y123.93 E.01675
G1 X45.07 Y82.421 E1.84166
G1 X45.07 Y82.954 E.01672
G1 X86.046 Y123.93 E1.81801
G1 X85.512 Y123.93 E.01675
G1 X45.07 Y83.488 E1.79432
G1 X45.07 Y84.022 E.01675
M73 P9 R123
G1 X84.978 Y123.93 E1.77063
G1 X84.445 Y123.93 E.01672
G1 X45.07 Y84.555 E1.74698
G1 X45.07 Y85.089 E.01675
G1 X83.911 Y123.93 E1.72329
G1 X83.378 Y123.93 E.01672
G1 X45.07 Y85.622 E1.69964
G1 X45.07 Y86.156 E.01675
G1 X82.844 Y123.93 E1.67595
G1 X82.311 Y123.93 E.01672
G1 X45.07 Y86.689 E1.6523
G1 X45.07 Y87.223 E.01675
G1 X81.777 Y123.93 E1.62861
G1 X81.243 Y123.93 E.01675
G1 X45.07 Y87.757 E1.60491
G1 X45.07 Y88.29 E.01672
G1 X80.71 Y123.93 E1.58127
G1 X80.176 Y123.93 E.01675
G1 X45.07 Y88.824 E1.55757
G1 X45.07 Y89.357 E.01672
G1 X79.643 Y123.93 E1.53392
G1 X79.109 Y123.93 E.01675
G1 X45.07 Y89.891 E1.51023
G1 X45.07 Y90.425 E.01675
G1 X78.575 Y123.93 E1.48654
G1 X78.042 Y123.93 E.01672
G1 X45.07 Y90.958 E1.46289
G1 X45.07 Y91.492 E.01675
G1 X77.508 Y123.93 E1.4392
G1 X76.975 Y123.93 E.01672
G1 X45.07 Y92.025 E1.41555
